X:1
T:Title
%%score [ ( 1 2 ) ( 3 4 ) ]
L:1/8
Q:1/4=144
M:6/4
K:Fmin
V:1 treble nm="Soprano Alto"
V:2 treble 
V:3 bass nm="Tenor Bass"
V:4 bass 
V:1
"^Con moto"!f!!<(! G2 | (A2 B2) c2!<)! =d4 e2 | (_d2 B2) c2 B4 d2 | (c2 G2) B2 (A2 =E2) F2 | %4
w: 1.Ach,|ar- * me Welt, du|trü- * gest mich, ja,|das _ be- kenn _ ich|
 G4 G2 G6 |"^espress." c2 _e2 d2 B4 c2 | (A4 F2) _E4 z2 | c2 e2 d2 B4 c2 | (A4 B2- B2 G4) | %9
w: ei- gent- lich,|und kann dich doch nicht|mei- * den,|und kann dich doch nicht|mei- * * *|
 F6 z2 z2 :|!f!"^sempre" G2 | (A2 B2) c2 =d4 =e2 | (f2 _d2) c2 B4 _e2 | (d2 B2) c2 B4 e2 | %14
w: den.|3.Dein|Ehr, _ dein Gut, du|ar- * me Welt, im|Tod, _ in rech- ten|
!<(! d4 c2 B4 d2!<)! | (c2 G2) B2 (A2 =E2) F2 |!>(! G4 G2 G6!>)! |"^espress." c2 _e2 d2 B4 c2 | %18
w: Nö- ten fehlt, dein|Schatz _ ist ei- * tel|fal- sches Geld,|dess hilf mir, Herr, zum|
 (A4 F2) _E4 z2 | c2 e2 d2 B4 c2 |"^rit. dim." (A4 B2- B2 G4) | F6 z2 z2 |] %22
w: Frie- * den,|dess hilf mir, Herr, zum|Frie- * * *|den.|
V:2
 =E2 | F4 F2 B4 B2 | B4 =A2 F4 F2 | =E4 C2 (C2 B,2) C2 | =D4 D2 =E6 | _E2 A2 F2 E4 =E2 | %6
w: ||||||
w: 2.Du|fal- sche Welt, du|bist nicht wahr, dein|Schein ver- geht, _ das|Weiß ich zwar,|mit Weh und gro- ßem|
 (F2 D4) C4 x2 | E2 E2 F2 D4 C2 | (C4 F2- F2 =E4) | C6 x4 :| =E2 | (F2 G2) A2 B4 B2 | %12
w: ||||||
w: Lei- * den,|mit Weh und gro- ßem|Lei- * * *|den.|||
 (c2 B2) A2 (F2 G2) B2 | B4 =A2 (B2 _A2) _G2 | (F2 A2) =A2 B2 F4 | =E4 C2 (C2 B,2) C2 | %16
w: ||||
w: ||||
 =D4 D2 =E6 | _E2 A2 F2 E4 =E2 | (F2 D4) C4 x2 | E2 E2 F2 D4 C2 | (C4 F2- F2 =E4) | C6 x4 |] %22
w: ||||||
w: ||||||
V:3
!f!!<(! C2 | (C2 B,2) F,2!<)! F4 B,_G | (F2 D2) E2 D4 B,2 | (=G,2 C2) G,2 (A,2 B,2) A,C | %4
w: ||||
 (C2 =A,2) =B,2 C6 |"^espress." _E2 E2 A,2 (A,2 G,2) A,2 | A,4 B,2 C2 E2 D2 | %7
w: ||mei- den, und kann dich|
 (C2 B,2) =A,2 (B,2 _A,2) =G,2 | (C2 A,2) F,2 (D2 C2 B,2) | A,6 z2 z2 :|!f!"^sempre" C2 | %11
w: doch, _ und kann _ dich|doch _ nicht mei- * *|den.||
 (C2 E2) E2 (F2 B,2) G2 | (C2 F2) E2 (A2 G2) _G2 | (F2 D2) E2 (D2 C2) B,2 | %14
w: |||
!<(! (A,2 D2) F2 (F2 D2) B,2!<)! | (=G,2 C2) G,2 (A,2 B,2) A,C |!>(! (C2 =A,2) =B,2 C6!>)! | %17
w: |||
"^espress." _E2 E2 A,2 (A,2 G,2) A,2 | A,4 B,2 C2 E2 D2 | (C2 B,2) =A,2 (B,2 _A,2) =G,2 | %20
w: |Frie- den, dess hilf mir,|Herr, _ dess hilf _ mir,|
"^rit. dim." (C2 A,2) F,2 (D2 C2 B,2) | =A,6 z2 z2 |] %22
w: Herr, _ zum Frie- * *|den.|
V:4
 C,2 | (F,2 D,2) A,,2 A,4 _G,E, | F,4 F,,2 (B,,2 A,,2) =G,,2 | C,4 =E,2 (F,2 G,2) A,2 | %4
w: ||||
w: ||||
 G,4 G,,2 C,6 | A,,2 C,2 D,2 E,4 C,2 | (D,2 F,2) G,2 A,2 C2 B,2 | (A,2 _G,2) F,2 (G,2 F,2) =E,2 | %8
w: ||||
w: ||Lei- * den, mit Weh und|gro- * ßem Lei- den, und|
 (F,2 _E,2) D,2 (B,,2 C,4) | F,,6 x4 :| C,2 | (F,2 E,2) A,,2 A,4 G,2 | (A,2 B,2) C2 (=D2 E2) E,2 | %13
w: |||||
w: gro- * ßem Lei- *|den.||||
 F,4 F,2 _G,4 C,2 | F,4 E,2 (D,2 B,,2) =G,,2 | C,4 =E,2 (F,2 G,2) A,2 | G,4 G,,2 C,6 | %17
w: ||||
w: ||||
 A,,2 C,2 D,2 E,4 C,2 | (D,2 F,2) G,2 A,2 C2 B,2 | (A,2 _G,2) F,2 (G,2 F,2) =E,2 | %20
w: |||
w: |||
 (F,2 _E,2) D,2 (B,,2 C,4) | F,,6 x4 |] %22
w: ||
w: ||

